icons/evolvere-blue-folders-flat-vivid-dark-fallback/apps/64/steam.svg

<?xml version="1.0" encoding="UTF-8" standalone="no"?>
<!-- Created with Inkscape (http://www.inkscape.org/) -->

<svg
   xmlns:dc="http://purl.org/dc/elements/1.1/"
   xmlns:cc="http://creativecommons.org/ns#"
   xmlns:rdf="http://www.w3.org/1999/02/22-rdf-syntax-ns#"
   xmlns:svg="http://www.w3.org/2000/svg"
   xmlns="http://www.w3.org/2000/svg"
   xmlns:sodipodi="http://sodipodi.sourceforge.net/DTD/sodipodi-0.dtd"
   xmlns:inkscape="http://www.inkscape.org/namespaces/inkscape"
   width="64"
   height="64"
   id="svg13094"
   version="1.1"
   inkscape:version="0.91+devel r"
   sodipodi:docname="steam.svg">
  <sodipodi:namedview
     id="base"
     pagecolor="#ffffff"
     bordercolor="#666666"
     borderopacity="1.0"
     inkscape:pageopacity="0"
     inkscape:pageshadow="2"
     inkscape:zoom="11.313709"
     inkscape:cx="31.156164"
     inkscape:cy="34.118445"
     inkscape:document-units="px"
     inkscape:current-layer="svg13094"
     showgrid="true"
     inkscape:snap-bbox="true"
     inkscape:bbox-paths="true"
     inkscape:bbox-nodes="true"
     inkscape:snap-bbox-edge-midpoints="true"
     inkscape:snap-bbox-midpoints="true"
     inkscape:object-paths="true"
     inkscape:snap-intersection-paths="true"
     inkscape:object-nodes="true"
     inkscape:snap-smooth-nodes="true"
     inkscape:snap-midpoints="true"
     inkscape:snap-object-midpoints="true"
     inkscape:snap-center="true"
     showguides="true"
     inkscape:guide-bbox="true"
     inkscape:window-width="1920"
     inkscape:window-height="1023"
     inkscape:window-x="-10"
     inkscape:window-y="35"
     inkscape:window-maximized="1"
     inkscape:snap-global="true"
     fit-margin-top="0"
     fit-margin-left="0"
     fit-margin-right="0"
     fit-margin-bottom="0"
     showborder="true"
     inkscape:showpageshadow="false"
     inkscape:snap-page="true">
    <inkscape:grid
       type="xygrid"
       id="grid3075"
       empspacing="5"
       visible="true"
       enabled="true"
       snapvisiblegridlinesonly="true"
       originx="1.6362304e-08px"
       originy="18px" />
  </sodipodi:namedview>
  <defs
     id="defs13096" />
  <metadata
     id="metadata13099">
    <rdf:RDF>
      <cc:Work
         rdf:about="">
        <dc:format>image/svg+xml</dc:format>
        <dc:type
           rdf:resource="http://purl.org/dc/dcmitype/StillImage" />
        <dc:title></dc:title>
      </cc:Work>
    </rdf:RDF>
  </metadata>
  <path
     inkscape:connector-curvature="0"
     style="color:#000000;display:inline;overflow:visible;visibility:visible;opacity:1;fill:#3b577a;fill-opacity:1;fill-rule:nonzero;stroke:none;stroke-width:1;stroke-linecap:butt;stroke-linejoin:miter;stroke-miterlimit:4;stroke-dasharray:none;stroke-dashoffset:0;stroke-opacity:1;marker:none;enable-background:accumulate"
     d="m 0,4 0,30 0,28 2,2 30,0 30,0 2,-2 L 64,34 64,4 32,4 0,4 Z"
     id="path4095" />
  <path
     inkscape:connector-curvature="0"
     style="color:#000000;display:inline;overflow:visible;visibility:visible;opacity:1;fill:#668cbb;fill-opacity:1;fill-rule:nonzero;stroke:none;stroke-width:2.28571415;stroke-linecap:butt;stroke-linejoin:miter;stroke-miterlimit:4;stroke-dasharray:none;stroke-dashoffset:0;stroke-opacity:1;marker:none;enable-background:accumulate"
     d="M 2,0 0,1 0,4 32,4 64,4 64,1 62,0 32,0 2,0 Z"
     id="path4090" />
  <path
     inkscape:connector-curvature="0"
     style="opacity:1;fill:#729bcd;fill-opacity:1;fill-rule:nonzero;stroke-width:1;stroke-linecap:butt;stroke-linejoin:miter;stroke-miterlimit:4;stroke-dasharray:none;stroke-dashoffset:0;stroke-opacity:1"
     d="M 0,3 0,6 2,4 Z"
     id="path4298"
     sodipodi:nodetypes="cccc" />
  <path
     d="M 64,6 62,4 64,3 Z"
     id="path3028"
     style="opacity:1;fill:#4f6f97;fill-opacity:1;stroke:none;stroke-width:0.62299293;stroke-linecap:butt;stroke-linejoin:miter;stroke-miterlimit:4;stroke-dasharray:none;stroke-dashoffset:0;stroke-opacity:1;marker:none"
     inkscape:connector-curvature="0" />
  <g
     id="g3043"
     inkscape:export-filename="folder.png"
     inkscape:export-xdpi="90"
     inkscape:export-ydpi="90"
     transform="translate(-0.62500009,0.082283)" />
  <g
     id="scalable"
     transform="matrix(1.0385892,0,0,1.0385892,1214.7222,1878.8121)"
     inkscape:label="#g3701"
     style="fill:#ffffff" />
  <path
     style="color:#000000;fill:#ffffff;fill-opacity:0.90608227;fill-rule:nonzero;stroke:none;stroke-width:1;marker:none;visibility:visible;display:inline;overflow:visible;enable-background:accumulate"
     d="M 41.669922 16.912109 C 36.547172 16.912109 32.386285 21.044119 32.339844 26.15625 L 26.527344 34.486328 C 26.290466 34.461728 26.04969 34.449219 25.806641 34.449219 C 24.507935 34.449219 23.292764 34.804687 22.25 35.427734 L 0 26.478516 L 0 34 L 0 35.265625 L 19.003906 42.894531 C 19.684945 46.025424 22.476525 48.380859 25.806641 48.380859 C 29.413904 48.380859 32.389507 45.616727 32.734375 42.097656 L 41.669922 35.5625 C 46.820519 35.5625 51 31.391313 51 26.242188 C 51 21.090108 46.820996 16.912109 41.669922 16.912109 z M 41.669922 19.988281 C 45.120927 19.988281 47.925781 22.791028 47.925781 26.242188 C 47.925781 29.693341 45.120927 32.488281 41.669922 32.488281 C 38.218914 32.488281 35.414062 29.693341 35.414062 26.242188 C 35.414062 22.791028 38.218914 19.988281 41.669922 19.988281 z M 41.695312 21.216797 C 38.937214 21.216797 36.699219 23.454825 36.699219 26.212891 C 36.699219 28.970976 38.937215 31.210938 41.695312 31.210938 C 44.453413 31.210937 46.691406 28.970976 46.691406 26.212891 C 46.691406 23.454825 44.453413 21.216797 41.695312 21.216797 z M 25.806641 36.292969 C 28.645755 36.292969 30.927734 38.574956 30.927734 41.414062 C 30.927734 44.253177 28.645755 46.535156 25.806641 46.535156 C 23.831881 46.535156 22.126896 45.434421 21.271484 43.806641 C 22.113685 44.146497 22.955703 44.48389 23.796875 44.826172 C 25.8843 45.664964 28.26245 44.656429 29.101562 42.568359 C 29.94068 40.480895 28.921881 38.112229 26.833984 37.273438 L 24.701172 36.417969 C 25.056566 36.340559 25.427274 36.292969 25.806641 36.292969 z "
     id="path3088" />
</svg>

<svg xmlns="http://www.w3.org/2000/svg" viewBox="0 0 64 64"><g color="#000"><path d="m0 4v30 28l2 2h30 30l2-2v-28-30h-32-32" fill="#3b577a"/><path d="m2 0l-2 1v3h32 32v-3l-2-1h-30-30" fill="#668cbb"/></g><path d="m0 3v3l2-2" fill="#729bcd"/><path d="m64 6l-2-2 2-1" fill="#4f6f97"/><path d="m41.67 16.912c-5.123 0-9.284 4.132-9.33 9.244l-5.813 8.33c-.237-.025-.478-.037-.721-.037-1.299 0-2.514.355-3.557.979l-22.25-8.949v7.521 1.266l19 7.629c.681 3.131 3.473 5.486 6.803 5.486 3.607 0 6.583-2.764 6.928-6.283l8.936-6.535c5.151 0 9.33-4.171 9.33-9.32 0-5.152-4.179-9.33-9.33-9.33m0 3.076c3.451 0 6.256 2.803 6.256 6.254 0 3.451-2.805 6.246-6.256 6.246-3.451 0-6.256-2.795-6.256-6.246 0-3.451 2.805-6.254 6.256-6.254m.025 1.229c-2.758 0-4.996 2.238-4.996 4.996 0 2.758 2.238 4.998 4.996 4.998 2.758 0 4.996-2.24 4.996-4.998 0-2.758-2.238-4.996-4.996-4.996m-15.889 15.08c2.839 0 5.121 2.282 5.121 5.121 0 2.839-2.282 5.121-5.121 5.121-1.975 0-3.68-1.101-4.535-2.729.842.34 1.684.677 2.525 1.02 2.087.839 4.466-.17 5.305-2.258.839-2.087-.18-4.456-2.268-5.295l-2.133-.855c.355-.077.726-.125 1.105-.125" fill="#fff" fill-opacity=".906" color="#000"/></svg>
